X:1
T:Lead Me On, 77.76
T:Lead Me On, 77.76
T:Charles Crozat Converse, 1870
T:Public Domain Courtesy of the Cyber Hymnal™
C:Charles Crozat Converse, 1870
Z:Public Domain
Z:Courtesy of the Cyber Hymnal™
%%score ( 1 2 ) 3
L:1/8
Q:1/4=107
M:4/4
K:F
V:1 treble 
V:2 treble 
V:3 bass 
V:1
 [Fc]2 [Fc]2 [Fc]3 [FA] | [CF]2 D2 [CF]2 z2 | [Fc]2 [Fc]2 [Fc]3 [FA] | [EG]2 [EG]2 [EG]2 z2 | %4
 [Fc]2 [Fc]2 [Fc]3 [FA] | [CF]2 D2 [CF]2 F>[FG] | [FA]4 [EG]3 [CF] | [CF]6 z2 |] %8
V:2
 x8 | x2 D2 x4 | x8 | x8 | x8 | x2 D2 F3/2 x5/2 | x8 | x8 |] %8
V:3
 [F,A,]2 [F,A,]2 [F,A,]3 [F,C] | [F,A,]2 [F,B,]2 [F,A,]2 z2 | [F,A,]2 [F,A,]2 [F,A,]3 [F,C] | %3
 [C,C]2 [C,C]2 [C,C]2 z2 | [F,A,]2 [F,A,]2 [F,A,]3 [F,C] | [F,A,]2 [F,B,]2 [F,A,]2 [F,A,]>[F,B,] | %6
 [F,C]4 [C,B,]3 [F,A,] | [F,A,]6 z2 |] %8

